!!!OTL: Graserin und Reiter Ach Muetter, liebi Muetter,
!!!ARE: Europa, Mitteleuropa, Schweiz
!!!YOR: 7, S. 148
!!    1914 gedruckt in Bern
!!!SCT: Q0149F
!!!YEM: Copyright 1995, estate of Helmut Schaffrath.
**kern
*ICvox
*Ivox
*M4/4
*k[f#]
*G:
{4d
=1
4.g
8g
4g
4a
=2
2b
4g}
{4g
=3
4b
4g
4cc
4b
=4
2a
4r}
{4a
=5
4.ee
8b
4cc
4a
=6
2dd
4b}
{4b
=7
4.cc
8a
4g
4f#
=8
2g
4r}
{4a
=9
4.ee
8b
4cc
4a
=10
2dd
4b}
{4b
=11
4.cc
8a
4g
4f#
=12
2g
4r}
==
!!!AGN: Ballade, Verfuehrung, Verlassen des Elternhauses
!!!ONB: ESAC (Essen Associative Code) Database: BALLADE
!!!AMT: simple quadruple
!!!AIN: vox
!!!EED: Helmut Schaffrath
!!!EEV: 1.0
*-
